plasma/desktoptheme/Arc-Dark/icons/keyboard.svg

<svg xmlns="http://www.w3.org/2000/svg" width="32" height="32" version="1.1">
 <g id="22-22-keyboard-layout" transform="translate(-452,-166)">
  <rect style="opacity:0.001" width="22" height="22" x="484" y="176"/>
  <path style="fill:#d3dae3" d="m 495.00043,178.99664 c -4.41827,0 -8,3.58173 -8,8 0,4.41827 3.58173,8 8,8 4.41828,0 8,-3.58173 8,-8 0,-4.41827 -3.58172,-8 -8,-8 z m -0.57143,2.21429 c 0.0765,-0.008 0.17286,0.005 0.25,0 0.009,0.0366 -0.0556,0.1667 -0.14285,0.35714 -0.55527,1.21298 -0.58677,2.63355 -0.0714,3.39286 0.0933,0.13766 0.17857,0.26868 0.17857,0.28571 0,0.017 -0.10057,0.0357 -0.21429,0.0357 -0.26694,0 -0.51956,-0.1627 -1.03571,-0.57142 -0.22929,-0.18157 -0.52737,-0.33407 -0.64286,-0.35715 -0.18135,-0.0362 -0.22969,-0.0204 -0.46429,0.21428 -0.21828,0.21824 -0.28571,0.33592 -0.28571,0.53572 0,0.75764 0.89952,1.35993 2.57143,1.71428 2.27052,0.48122 2.83023,0.91328 2.89286,2.10714 0.0786,1.49712 -0.7184,2.62603 -2.46429,3.5 -0.20837,0.10435 -0.34114,0.14486 -0.42857,0.17858 -0.0387,-0.003 -0.0685,0.003 -0.10708,0 -0.0149,-0.0463 -0.0357,-0.15367 -0.0357,-0.35715 0,-0.79517 -0.31342,-1.61365 -0.7857,-2.07143 -0.12678,-0.12288 -0.48175,-0.38325 -0.78573,-0.57142 -0.30397,-0.18816 -0.61023,-0.40675 -0.67857,-0.5 -0.11326,-0.15476 -0.12268,-0.24983 -0.0357,-0.53572 0.15858,-0.52214 0.34733,-0.81295 0.71428,-1.14286 0.19237,-0.17296 0.38595,-0.318 0.42857,-0.32142 0.0426,-0.003 -0.24589,-0.0901 -0.67857,-0.17858 -0.43267,-0.0887 -1.06557,-0.27442 -1.39285,-0.39285 -0.59838,-0.21652 -1.40626,-0.67104 -1.7143,-1 -0.013,-0.0139 -0.0243,-0.0233 -0.0356,-0.0357 0.44129,-1.75778 1.67969,-3.19847 3.32141,-3.89286 0.34351,-0.14529 0.69763,-0.24497 1.07143,-0.32143 0.1862,-0.038 0.37918,-0.0519 0.57143,-0.0714 z m 5.35715,2.67857 c 0.13423,0.083 0.64104,1.17948 0.78571,1.71428 0.18679,0.69051 0.17327,1.88543 0,2.57143 -0.0659,0.26108 -0.15046,0.50532 -0.17857,0.53572 -0.0281,0.0304 -0.13007,-0.14461 -0.25,-0.35715 -0.11994,-0.2125 -0.50304,-0.66405 -0.82143,-1 -0.91902,-0.96975 -1.06353,-1.47609 -0.67857,-2.25 0.19414,-0.39027 1.03897,-1.2784 1.14286,-1.21428 z"/>
 </g>
 <g id="keyboard-layout">
  <rect style="opacity:0.001" width="32" height="32" x="0" y="0"/>
  <path style="fill:#d3dae3" d="M 16 4 C 9.3725949 4 4 9.3725952 4 16 C 4 22.627405 9.3725949 28 16 28 C 22.62742 28 28 22.627405 28 16 C 28 9.3725952 22.62742 4 16 4 z M 15.429688 7.1230469 C 15.54578 7.1109069 15.691531 7.1306269 15.808594 7.1230469 C 15.822251 7.1785887 15.724202 7.3750632 15.591797 7.6640625 C 14.749157 9.5048012 14.702285 11.660221 15.484375 12.8125 C 15.625962 13.021403 15.755859 13.220254 15.755859 13.246094 C 15.755859 13.271894 15.602263 13.298828 15.429688 13.298828 C 15.024599 13.298828 14.642649 13.053841 13.859375 12.433594 C 13.511419 12.158056 13.058072 11.925645 12.882812 11.890625 C 12.607608 11.835681 12.533747 11.860662 12.177734 12.216797 C 11.846486 12.547983 11.744141 12.726092 11.744141 13.029297 C 11.744141 14.179041 13.109304 15.093122 15.646484 15.630859 C 19.092076 16.361127 19.942069 17.016401 20.037109 18.828125 C 20.156387 21.100056 18.946323 22.812393 16.296875 24.138672 C 15.980666 24.297027 15.779163 24.358986 15.646484 24.410156 C 15.587757 24.405656 15.542915 24.414656 15.484375 24.410156 C 15.461765 24.339895 15.429688 24.177929 15.429688 23.869141 C 15.429688 22.662444 14.95498 21.419307 14.238281 20.724609 C 14.045887 20.538134 13.506222 20.142976 13.044922 19.857422 C 12.583637 19.571882 12.119333 19.241118 12.015625 19.099609 C 11.843749 18.864754 11.828943 18.720957 11.960938 18.287109 C 12.201589 17.494742 12.488063 17.053383 13.044922 16.552734 C 13.336851 16.290261 13.632596 16.069653 13.697266 16.064453 C 13.761913 16.059901 13.320671 15.927241 12.664062 15.792969 C 12.007471 15.658365 11.049392 15.375034 10.552734 15.195312 C 9.6446713 14.866736 8.4186332 14.178897 7.9511719 13.679688 C 7.9314429 13.658597 7.9136314 13.64382 7.8964844 13.625 C 8.5661572 10.957508 10.446132 8.7705576 12.9375 7.7167969 C 13.458787 7.4963144 13.995244 7.3445464 14.5625 7.2285156 C 14.845065 7.1708499 15.137942 7.1526389 15.429688 7.1230469 z M 23.558594 11.1875 C 23.762294 11.313454 24.532411 12.975531 24.751953 13.787109 C 25.035413 14.834981 25.014895 16.648425 24.751953 17.689453 C 24.651948 18.085652 24.523129 18.457766 24.480469 18.503906 C 24.437827 18.550039 24.283559 18.283475 24.101562 17.960938 C 23.919551 17.638461 23.338637 16.953173 22.855469 16.443359 C 21.460825 14.971728 21.241981 14.203733 21.826172 13.029297 C 22.120786 12.437048 23.400938 11.0902 23.558594 11.1875 z"/>
 </g>
</svg>

<?xml version="1.0" encoding="UTF-8"?>
<svg width="32" height="32" version="1.1" xmlns="http://www.w3.org/2000/svg">
 <g id="22-22-keyboard-layout" transform="translate(-452,-166)">
  <rect x="484" y="176" width="22" height="22" opacity=".001"/>
  <path d="m495 179c-4.4183 0-8 3.5817-8 8s3.5817 8 8 8c4.4183 0 8-3.5817 8-8s-3.5817-8-8-8zm-0.57143 2.2143c0.0765-8e-3 0.17286 5e-3 0.25 0 9e-3 0.0366-0.0556 0.1667-0.14285 0.35714-0.55527 1.213-0.58677 2.6336-0.0714 3.3929 0.0933 0.13766 0.17857 0.26868 0.17857 0.28571 0 0.017-0.10057 0.0357-0.21429 0.0357-0.26694 0-0.51956-0.1627-1.0357-0.57142-0.22929-0.18157-0.52737-0.33407-0.64286-0.35715-0.18135-0.0362-0.22969-0.0204-0.46429 0.21428-0.21828 0.21824-0.28571 0.33592-0.28571 0.53572 0 0.75764 0.89952 1.3599 2.5714 1.7143 2.2705 0.48122 2.8302 0.91328 2.8929 2.1071 0.0786 1.4971-0.7184 2.626-2.4643 3.5-0.20837 0.10435-0.34114 0.14486-0.42857 0.17858-0.0387-3e-3 -0.0685 3e-3 -0.10708 0-0.0149-0.0463-0.0357-0.15367-0.0357-0.35715 0-0.79517-0.31342-1.6136-0.7857-2.0714-0.12678-0.12288-0.48175-0.38325-0.78573-0.57142-0.30397-0.18816-0.61023-0.40675-0.67857-0.5-0.11326-0.15476-0.12268-0.24983-0.0357-0.53572 0.15858-0.52214 0.34733-0.81295 0.71428-1.1429 0.19237-0.17296 0.38595-0.318 0.42857-0.32142 0.0426-3e-3 -0.24589-0.0901-0.67857-0.17858-0.43267-0.0887-1.0656-0.27442-1.3928-0.39285-0.59838-0.21652-1.4063-0.67104-1.7143-1-0.013-0.0139-0.0243-0.0233-0.0356-0.0357 0.44129-1.7578 1.6797-3.1985 3.3214-3.8929 0.34351-0.14529 0.69763-0.24497 1.0714-0.32143 0.1862-0.038 0.37918-0.0519 0.57143-0.0714zm5.3572 2.6786c0.13423 0.083 0.64104 1.1795 0.78571 1.7143 0.18679 0.69051 0.17327 1.8854 0 2.5714-0.0659 0.26108-0.15046 0.50532-0.17857 0.53572-0.0281 0.0304-0.13007-0.14461-0.25-0.35715-0.11994-0.2125-0.50304-0.66405-0.82143-1-0.91902-0.96975-1.0635-1.4761-0.67857-2.25 0.19414-0.39027 1.039-1.2784 1.1429-1.2143z" fill="#d3dae3"/>
 </g>
 <g id="keyboard-layout">
  <rect width="32" height="32" opacity=".001"/>
  <path d="m16 4c-6.6274 0-12 5.3726-12 12 0 6.6274 5.3726 12 12 12 6.6274 0 12-5.3726 12-12 0-6.6274-5.3726-12-12-12zm-0.57031 3.123c0.11609-0.01214 0.26184 0.00758 0.37891 0 0.013657 0.055542-0.084392 0.25202-0.2168 0.54102-0.84264 1.8407-0.88951 3.9962-0.10742 5.1484 0.14159 0.2089 0.27148 0.40775 0.27148 0.43359 0 0.0258-0.1536 0.052734-0.32617 0.052734-0.40509 0-0.78704-0.24499-1.5703-0.86523-0.34796-0.27554-0.8013-0.50795-0.97656-0.54297-0.2752-0.054944-0.34906-0.029963-0.70508 0.32617-0.33125 0.33119-0.43359 0.5093-0.43359 0.8125 0 1.1497 1.3652 2.0638 3.9023 2.6016 3.4456 0.73027 4.2956 1.3855 4.3906 3.1973 0.11928 2.2719-1.0908 3.9843-3.7402 5.3105-0.31621 0.15836-0.51771 0.22031-0.65039 0.27148-0.058727-0.0045-0.10357 0.0045-0.16211 0-0.02261-0.070261-0.054687-0.23223-0.054687-0.54102 0-1.2067-0.47471-2.4498-1.1914-3.1445-0.19239-0.18648-0.73206-0.58163-1.1934-0.86719-0.46128-0.28554-0.92559-0.6163-1.0293-0.75781-0.17188-0.23486-0.18668-0.37865-0.054687-0.8125 0.24065-0.79237 0.52712-1.2337 1.084-1.7344 0.29193-0.26247 0.58767-0.48308 0.65234-0.48828 0.064647-0.004552-0.3766-0.13721-1.0332-0.27148-0.65659-0.1346-1.6147-0.41794-2.1113-0.59766-0.90806-0.32858-2.1341-1.0164-2.6016-1.5156-0.019729-0.021091-0.03754-0.035868-0.054688-0.054688 0.66967-2.6675 2.5496-4.8544 5.041-5.9082 0.52129-0.22048 1.0577-0.37225 1.625-0.48828 0.28256-0.057666 0.57544-0.075877 0.86719-0.10547zm8.1289 4.0645c0.2037 0.12595 0.97382 1.788 1.1934 2.5996 0.28346 1.0479 0.26294 2.8613 0 3.9023-0.1 0.3962-0.22882 0.76831-0.27148 0.81445-0.042642 0.046133-0.19691-0.22043-0.37891-0.54297-0.18201-0.32248-0.76292-1.0078-1.2461-1.5176-1.3946-1.4716-1.6135-2.2396-1.0293-3.4141 0.29461-0.59225 1.5748-1.9391 1.7324-1.8418z" fill="#d3dae3"/>
 </g>
</svg>
